X:1072
T:Just A Wee Deoch An Doris 
C:Joe Buchanan's Scottish Tome - Page 093.2
I:093 2
R:Folk
Z:Carl Allison
L:1/8
M:4/4
K:Bb
D/E/ | "Bb"F F2 E | D F2 B/c/2 | d d2 c | B3 G/A/ |
|"Eb" B B2 A |"Eb" G F2 F | GF BD |"F7" C3 D/E/ |
| "Bb"F F2 E | D F2 B/c/ | d d2 c | (B2 B)(3A/B/c/ ||
| dB/d/ "F7"cA |"Eb" BG "Bb"FG/A/2 |"Cm" B B2 "F7"c |1"Bb" B2 "F7"D/E/ :|2 "Bb"BF"F7"GA |]

